X: 30617
T: One That Was Lost, The
R: jig
M: 6/8
K: Edorian
f2|:edB BAF|E/F/ED EFA|BAF D2B|AFA def|
edB BAF|E/F/ED EFA|dfb afd|1 efee2f:|2 efee2B||
efe efa|baf edB|c!slide!d2 Bdd|AFA def|
efe efa|baf edB|dfb afe|efe e2B|
efe efa|baf edB|c!slide!d2 Bdd|AFA def|
gfe fed|edB AFA|dfb afd|e2fg2f||

